public/images/globe.svg

<svg width="20" height="20" viewBox="0 0 20 20" xmlns="http://www.w3.org/2000/svg"><title>Shape</title><path d="M9.6.4C4.307.4 0 4.707 0 10c0 5.293 4.306 9.6 9.6 9.6s9.6-4.307 9.6-9.6c0-5.293-4.306-9.6-9.6-9.6zm8.19 9.6c0 1.873-.637 3.6-1.697 4.98-.3-.234-.62-.867-.32-1.523.304-.66.383-2.188.313-2.783-.066-.594-.375-2.025-1.214-2.04-.838-.01-1.413-.288-1.91-1.282-1.034-2.068 1.938-2.465.905-3.61-.29-.32-1.783 1.323-2.002-.868-.014-.157.135-.392.336-.636 3.245 1.09 5.59 4.157 5.59 7.762zM8.475 1.893c-.196.382-.713.537-1.027.824-.685.62-.98.533-1.347 1.127-.37.594-1.567 1.45-1.567 1.88 0 .43.604.935.906.837.302-.1 1.1-.093 1.567.07.468.167 3.913.333 2.815 3.245-.348.926-1.873.77-2.28 2.303-.06.225-.27 1.186-.284 1.5-.024.486.345 2.318-.124 2.318-.47 0-1.738-1.64-1.738-1.936 0-.297-.328-1.338-.328-2.23 0-.89-1.518-.877-1.518-2.062 0-1.068.823-1.6.638-2.113-.18-.51-1.627-.527-2.23-.59 1.053-2.73 3.53-4.758 6.516-5.172zM7.026 17.77c.49-.26.54-.596.987-.613.51-.023.925-.2 1.5-.326.51-.11 1.423-.628 2.226-.694.677-.055 2.014.035 2.374.69-1.295.86-2.848 1.362-4.514 1.362-.9 0-1.765-.15-2.575-.418z" fill="#3F3242" fill-rule="evenodd"/></svg>

<?xml version="1.0" encoding="UTF-8" standalone="no"?>
<svg width="25px" height="25px" viewBox="0 0 25 25" version="1.1" xmlns="http://www.w3.org/2000/svg" xmlns:xlink="http://www.w3.org/1999/xlink" xmlns:sketch="http://www.bohemiancoding.com/sketch/ns">
    <!-- Generator: Sketch 3.4.2 (15855) - http://www.bohemiancoding.com/sketch -->
    <title>globe</title>
    <desc>Created with Sketch.</desc>
    <defs></defs>
    <g id="Page-1" stroke="none" stroke-width="1" fill="none" fill-rule="evenodd" sketch:type="MSPage">
        <g id="globe" sketch:type="MSArtboardGroup" fill="#3F3242">
            <g sketch:type="MSLayerGroup" transform="translate(3.000000, 3.000000)" id="Shape">
                <g sketch:type="MSShapeGroup">
                    <path d="M9.6,0.4 C4.307,0.4 0,4.707 0,10 C0,15.293 4.306,19.6 9.6,19.6 C14.894,19.6 19.2,15.293 19.2,10 C19.2,4.707 14.894,0.4 9.6,0.4 L9.6,0.4 Z M17.79,10 C17.79,11.873 17.153,13.6 16.093,14.98 C15.793,14.746 15.473,14.113 15.773,13.457 C16.077,12.797 16.156,11.269 16.086,10.674 C16.02,10.08 15.711,8.649 14.872,8.634 C14.034,8.624 13.459,8.346 12.962,7.352 C11.928,5.284 14.9,4.887 13.867,3.742 C13.577,3.422 12.084,5.065 11.865,2.874 C11.851,2.717 12,2.482 12.201,2.238 C15.446,3.328 17.791,6.395 17.791,10 L17.79,10 Z M8.475,1.893 C8.279,2.275 7.762,2.43 7.448,2.717 C6.763,3.337 6.468,3.25 6.101,3.844 C5.731,4.438 4.534,5.294 4.534,5.724 C4.534,6.154 5.138,6.659 5.44,6.561 C5.742,6.461 6.54,6.468 7.007,6.631 C7.475,6.798 10.92,6.964 9.822,9.876 C9.474,10.802 7.949,10.646 7.542,12.179 C7.482,12.404 7.272,13.365 7.258,13.679 C7.234,14.165 7.603,15.997 7.134,15.997 C6.664,15.997 5.396,14.357 5.396,14.061 C5.396,13.764 5.068,12.723 5.068,11.831 C5.068,10.941 3.55,10.954 3.55,9.769 C3.55,8.701 4.373,8.169 4.188,7.656 C4.008,7.146 2.561,7.129 1.958,7.066 C3.011,4.336 5.488,2.308 8.474,1.894 L8.475,1.893 Z M7.026,17.77 C7.516,17.51 7.566,17.174 8.013,17.157 C8.523,17.134 8.938,16.957 9.513,16.831 C10.023,16.721 10.936,16.203 11.739,16.137 C12.416,16.082 13.753,16.172 14.113,16.827 C12.818,17.687 11.265,18.189 9.599,18.189 C8.699,18.189 7.834,18.039 7.024,17.771 L7.026,17.77 Z"></path>
                </g>
            </g>
        </g>
    </g>
</svg>
